<?xml version="1.0" encoding="UTF-8"?>
<map version="1.10" tiledversion="1.12.1" orientation="orthogonal" renderorder="right-down" width="20" height="30" tilewidth="16" tileheight="16" infinite="0" nextlayerid="4" nextobjectid="1">
 <tileset firstgid="1" source="../tsx/Room_Builder_free_16x16.tsx"/>
 <tileset firstgid="392" source="../tsx/Interiors_free_16x16.tsx"/>
 <tileset firstgid="1816" source="../tsx/Adam_16x16.tsx"/>
 <tileset firstgid="2152" source="../tsx/Alex_16x16.tsx"/>
 <tileset firstgid="2488" source="../tsx/Bob_16x16.tsx"/>
 <tileset firstgid="2824" source="../tsx/Amelia_16x16.tsx"/>
 <layer id="1" name="Floor" width="20" height="30">
  <data encoding="csv">
295,295,295,295,295,295,295,295,216,217,217,3221225688,295,295,295,295,295,295,295,295,
295,295,295,295,295,295,295,295,216,217,217,3221225688,295,295,295,295,295,295,295,295,
295,295,295,295,295,295,295,295,216,217,217,3221225688,295,295,295,295,295,295,295,295,
295,295,295,295,295,295,295,295,216,217,217,3221225688,295,295,295,295,295,295,295,295,
295,295,295,295,295,295,295,295,216,217,217,3221225688,295,295,295,295,295,295,295,295,
2684354776,536871128,536871128,536871128,536871128,536871128,536871128,536871128,201,217,217,3221225688,295,295,295,295,295,295,295,295,
217,1610612953,1610612953,1610612953,1610612953,1610612953,1610612953,1610612953,217,217,217,3221225688,295,295,295,295,295,295,295,295,
1610612952,3758096600,3758096600,3758096600,3758096600,3758096600,3758096600,3758096600,1610612937,217,217,3221225688,295,295,295,295,295,295,295,295,
295,295,295,295,295,295,295,295,216,217,217,3221225688,295,295,295,295,295,295,295,295,
295,295,295,295,295,295,295,295,216,217,217,3221225688,295,295,295,295,295,295,295,295,
295,295,295,295,295,295,295,295,216,217,217,3221225688,295,295,295,295,295,295,295,295,
295,295,295,295,295,295,295,295,216,217,217,3221225688,295,295,295,295,295,295,295,295,
295,295,295,295,295,295,295,295,216,217,217,3221225688,295,295,295,295,295,295,295,295,
295,295,295,295,295,295,295,295,216,217,217,2684354761,2684354776,2684354776,2684354776,295,295,295,295,295,
295,295,295,295,295,295,295,295,216,217,217,217,217,217,217,295,295,295,295,295,
295,295,295,295,295,295,295,295,216,217,217,3221225673,1610612952,1610612952,1610612952,295,295,295,295,295,
295,295,295,295,295,295,295,295,216,217,217,3221225688,295,295,295,295,295,295,295,295,
295,295,295,295,295,295,295,295,216,217,217,3221225688,295,295,295,295,295,295,295,295,
295,295,295,295,295,295,295,295,216,217,217,3221225688,295,295,295,295,295,295,295,295,
295,295,295,295,295,295,295,295,216,217,217,3221225688,295,295,295,295,295,295,295,295,
295,295,295,295,295,295,295,295,216,217,217,3221225688,295,295,295,295,295,295,295,295,
295,295,295,295,295,295,295,295,216,217,217,3221225688,295,295,295,295,295,295,295,295,
295,295,295,295,295,295,295,295,216,217,217,3221225688,295,295,295,295,295,295,295,295,
295,295,295,295,295,295,295,295,216,217,217,3221225688,295,295,295,295,295,295,295,295,
295,295,295,295,295,295,295,295,216,217,217,3221225688,295,295,295,295,295,295,295,295,
295,295,295,295,295,295,295,295,216,217,217,3221225688,295,295,295,295,295,295,295,295,
295,295,295,295,295,295,295,295,216,217,217,3221225688,295,295,295,295,295,295,295,295,
295,295,295,295,295,295,295,295,216,217,217,3221225688,295,295,295,295,295,295,295,295,
295,295,295,295,295,295,295,295,216,217,217,3221225688,295,295,295,295,295,295,295,295,
295,295,295,295,295,295,295,295,216,217,217,3221225688,295,295,295,295,295,295,295,295
</data>
 </layer>
 <layer id="2" name="Furniture" width="20" height="30">
  <data encoding="csv">
0,0,0,0,0,0,0,0,0,0,0,0,0,0,0,0,0,0,0,0,
1106,1107,0,0,0,0,0,0,0,0,0,0,0,0,0,0,0,0,0,0,
1122,1123,0,0,0,0,0,0,0,0,0,0,0,0,0,0,0,0,0,0,
1138,1139,0,0,0,0,0,0,0,0,0,0,0,0,0,0,607,608,609,0,
0,0,0,0,0,0,0,0,0,0,0,0,0,0,0,0,623,624,625,0,
0,0,0,0,0,0,0,0,0,0,0,0,0,0,0,0,0,0,0,0,
0,0,0,0,0,0,0,0,0,0,0,0,0,0,0,0,0,0,0,0,
0,0,0,0,0,0,0,0,0,0,0,0,0,0,0,0,0,0,0,0,
1106,1107,0,0,0,0,0,0,0,0,0,0,0,0,0,472,473,473,473,474,
1122,1123,0,0,0,0,0,0,0,0,0,0,0,0,0,540,489,489,489,490,
1138,1139,0,0,0,0,0,0,0,0,0,0,0,0,0,504,0,0,0,506,
0,0,0,0,0,0,0,0,0,0,0,0,0,0,0,504,0,0,0,506,
0,0,0,0,0,0,0,0,0,0,0,0,0,0,0,504,0,0,0,506,
552,553,554,555,0,0,0,0,0,0,0,0,0,0,0,2684355099,2684355083,0,0,506,
568,569,570,571,0,0,0,0,0,0,0,0,0,0,0,2684355099,2684355083,0,0,506,
584,585,586,587,0,0,0,0,0,0,0,0,0,0,0,2684355099,2684355083,0,0,506,
0,0,0,0,0,0,0,0,0,0,0,0,0,0,0,504,0,0,0,506,
0,0,0,0,0,0,0,0,0,0,0,0,0,0,0,504,0,0,0,506,
0,0,0,0,0,0,0,0,0,0,0,0,0,0,0,540,0,0,0,506,
552,553,554,555,0,0,0,0,0,0,0,0,0,0,0,520,521,521,521,522,
568,569,570,571,0,0,0,0,0,0,0,0,0,0,0,0,0,0,0,0,
584,585,586,587,0,0,0,0,0,0,0,0,0,0,0,0,0,0,0,0,
0,0,0,0,0,0,0,0,0,0,0,0,0,0,0,0,0,0,0,0,
0,0,0,0,0,0,0,0,0,0,0,0,0,0,0,0,0,0,0,0,
1106,1107,0,0,0,0,0,0,0,0,0,0,0,0,0,0,0,0,1106,1107,
1122,1123,0,0,0,0,0,0,0,0,0,0,0,0,0,0,0,0,1122,1123,
1138,1139,0,0,0,0,0,0,0,0,0,0,0,0,0,0,0,0,1138,1139,
1106,1107,0,0,0,0,0,0,0,0,0,0,0,0,0,0,0,0,1106,1107,
1122,1123,0,0,0,0,0,0,0,0,0,0,0,0,0,0,0,0,1122,1123,
1138,1139,0,0,0,0,0,0,0,0,0,0,0,0,0,0,0,0,1138,1139
</data>
 </layer>
 <layer id="3" name="People" width="20" height="30">
  <data encoding="csv">
0,0,0,0,0,0,0,0,0,0,0,0,0,0,0,0,0,0,0,0,
0,0,0,0,0,0,0,0,0,0,0,0,0,0,0,0,0,0,0,0,
0,0,0,0,0,0,0,0,0,0,0,0,0,0,0,0,0,0,0,0,
0,0,0,0,0,0,0,0,0,0,0,0,0,0,0,0,0,0,0,0,
0,0,0,0,0,0,0,0,0,0,0,0,0,0,0,0,0,2208,0,0,
0,0,0,0,0,0,0,0,0,0,0,0,0,0,0,0,0,2232,0,0,
0,0,0,0,0,0,0,0,0,0,0,0,0,0,0,0,0,0,0,0,
0,0,0,0,0,0,0,0,0,0,0,0,0,0,0,0,0,0,0,0,
0,0,0,0,2824,0,0,0,0,0,0,0,0,0,0,0,0,0,0,0,
0,0,0,0,2848,0,0,0,0,0,0,0,0,0,0,0,0,0,0,0,
0,0,0,0,0,0,0,0,0,0,0,0,0,0,0,0,0,0,0,0,
0,0,0,0,0,0,0,0,0,0,0,0,0,0,0,0,0,0,0,0,
0,0,0,0,0,0,0,0,0,0,0,0,0,0,0,0,0,0,0,0,
0,0,0,0,0,0,0,0,0,0,0,0,0,0,0,0,0,1878,0,0,
0,0,0,0,0,0,0,0,0,0,0,0,0,0,0,0,0,1902,0,0,
0,0,0,0,0,0,0,0,0,0,0,0,0,0,0,0,0,0,0,0,
0,0,0,0,0,0,0,0,0,0,0,0,0,0,0,0,0,0,0,0,
0,2491,0,0,0,0,0,0,0,0,0,0,0,0,0,0,0,0,0,0,
0,2515,0,0,0,0,0,0,0,0,0,0,0,0,0,0,0,0,0,0,
0,0,0,0,0,0,0,0,0,0,0,0,0,0,0,0,0,0,0,0,
0,0,0,0,0,0,0,0,0,0,0,0,0,0,0,0,0,0,0,0,
0,0,0,0,0,0,0,0,0,0,0,0,0,0,0,0,0,0,0,0,
0,0,0,0,0,0,0,0,0,0,0,0,0,0,0,0,0,0,0,0,
0,0,0,0,0,0,0,0,0,0,0,0,0,0,0,0,0,0,0,0,
0,0,0,0,0,0,0,0,0,0,0,0,0,0,0,0,0,0,0,0,
0,0,0,0,0,0,0,0,0,0,0,0,0,0,0,0,0,0,0,0,
0,0,0,0,0,0,0,0,0,0,0,0,0,0,0,0,0,0,0,0,
0,0,0,0,0,0,0,0,0,0,0,0,0,0,0,0,0,0,0,0,
0,0,0,0,0,0,0,0,0,0,0,0,0,0,0,0,0,0,0,0,
0,0,0,0,0,0,0,0,0,0,0,0,0,0,0,0,0,0,0,0
</data>
 </layer>
</map>
